tools/download-figma-icons/icons/outlined-large/training.svg

<svg width="64" height="64" viewBox="0 0 64 64" fill="none" xmlns="http://www.w3.org/2000/svg">
<path fill-rule="evenodd" clip-rule="evenodd" d="M32 37.8388L4.993 24.9998L32 12.1608L59.007 24.9998L32 37.8388ZM48 39.4518C47.516 40.6518 41.685 44.9998 32 44.9998C22.315 44.9998 16.484 40.6518 16 39.4518V33.5538L31.356 40.8548C31.56 40.9508 31.78 40.9998 32 40.9998C32.22 40.9998 32.44 40.9508 32.644 40.8548L48 33.5538V39.4518ZM32 51.9998C22.43 51.9998 16 48.6818 16 45.5828V43.5648C19.318 45.9278 25.113 47.9998 32 47.9998C38.887 47.9998 44.682 45.9278 48 43.5648V45.5828C48 48.6818 41.57 51.9998 32 51.9998ZM56.199 45.9998L56.824 40.9998H58.176L58.801 45.9998H56.199ZM63.144 23.6458L32.644 9.14576C32.237 8.95076 31.763 8.95076 31.356 9.14576L0.856 23.6458C0.333 23.8938 0 24.4208 0 24.9998C0 25.5788 0.333 26.1068 0.856 26.3548L13 32.1278V45.5828C13 51.0398 20.99 54.9998 32 54.9998C43.01 54.9998 51 51.0398 51 45.5828V32.1278L56 29.7498V37.9998H55.5C54.743 37.9998 54.105 38.5638 54.012 39.3138L53.012 47.3138C52.958 47.7408 53.091 48.1698 53.375 48.4928C53.66 48.8158 54.069 48.9998 54.5 48.9998H60.5C60.931 48.9998 61.34 48.8158 61.625 48.4928C61.909 48.1698 62.042 47.7408 61.988 47.3138L60.988 39.3138C60.895 38.5638 60.257 37.9998 59.5 37.9998H59V28.3238L63.144 26.3548C63.667 26.1068 64 25.5788 64 24.9998C64 24.4208 63.667 23.8938 63.144 23.6458Z" fill="black"/>
</svg>

<svg xmlns="http://www.w3.org/2000/svg" width="64" height="64" fill="none" viewBox="0 0 64 64"><path fill="currentColor" fill-rule="evenodd" d="M32 37.839 4.993 24.999 32 12.162 59.007 25zm16 1.613C47.516 40.652 41.685 45 32 45s-15.516-4.348-16-5.548v-5.898l15.356 7.3a1.51 1.51 0 0 0 1.288 0L48 33.555zM32 52c-9.57 0-16-3.318-16-6.417v-2.018C19.318 45.928 25.113 48 32 48s12.682-2.072 16-4.435v2.018C48 48.682 41.57 52 32 52m24.199-6 .625-5h1.352l.625 5zm6.945-22.354-30.5-14.5a1.5 1.5 0 0 0-1.288 0l-30.5 14.5a1.498 1.498 0 0 0 0 2.709L13 32.128v13.455C13 51.04 20.99 55 32 55s19-3.96 19-9.417V32.128l5-2.378V38h-.5a1.5 1.5 0 0 0-1.488 1.314l-1 8A1.5 1.5 0 0 0 54.5 49h6a1.498 1.498 0 0 0 1.488-1.686l-1-8A1.5 1.5 0 0 0 59.5 38H59v-9.676l4.144-1.97a1.5 1.5 0 0 0 0-2.708" clip-rule="evenodd"/></svg>
